X:1
T:Title
%%score 1 { ( 2 5 ) | ( 3 4 ) }
L:1/8
Q:1/4=87
M:4/4
K:F
V:1 treble nm="Grand Piano, Soprano"
V:2 bass nm="Choir Pad, First to Greet Us There"
V:5 bass 
V:3 bass 
V:4 bass 
V:1
 FG A>A _A=A B<A | GA F>F FF F2 | AB c>c =Bd c<A | FA A>G GD G2 | AB c>c =Bd c<A | FE D>F Bc d2 | %6
w: By~Charles~Davis~Tillman * * * * * * *||||||
 ed c>c cd c<A | FAAG GC F2 | [Ac][Af][Bf][Be] [Be][Bd] [Be]2 | [Bd][Be][Ad][Ac] [Ac][FA] [Ac]2 | %10
w: ||||
 [FA][Fc][Ec][EB] [EB][EA] [EB]<[EB] | [EB][Ed][Fd][Fc] [Fc][FA] [Fc]2 | %12
w: ||
 [Ac][Af][Bf][Be] [Be][Bd] [Be]2 | [Bd][Be][Ad][Ac] [Ac][FA] [Fd]2 | %14
w: ||
 [FA][_Ec][DB][DB] [DF][^CB][=CA][CA] | [CF][CA][=B,A][B,G] [CG]C [CF]2- | [CF]4 z4 |] %17
w: |||
V:2
 A,B, C>C =B,[K:treble]C D<C | =B,C[K:bass] A,>A, _A,A, =A,2 | z _A, =A,>A, _A,B, =A,<C | %3
 A,C =B,>B, B,B, _B,2 | F,G, A,>A, _A,B, =A,<[K:treble]C | A,C B,>D D[K:bass]B, B,2 | %6
 CB, A,>A, A,B, A,<C | A,C=B,B, _B,B, A,2 | CCCC CC C2 | CCFF FC F2 | C[K:bass]A,G,G, G,C C<C | %11
 G,B,B,A, A,[K:treble]C A,2 | CCCC CC C2 | CEFF FC[K:bass] A,2 | CA,F,F, F,F,F,F, | %15
 A,A,G,G, B,B, A,2- | A,4 z4 |] %17
V:3
 z2 F,4 F,2- | F,2 F,4 F,2 | z2 F,4 F,2- | F,2 G,4 G,2- | G, z F,4 F,2- | F,2 B,,4 B,,2- | %6
 B,,2 F,4 F,2- | F,2 [G,,,G,,]2 [C,,C,]2 [F,,,F,,]2 | F,F,F,F, F,F, G,2 | C,C,F,F, F,F, F,2 | %10
 F,F,C,C, C,C, C,<C, | C,C,F,F, F,F, F,2 | F,F,G,G, G,G, G,2 | C,C,F,F, F,F, F,2 | %14
 F,F,B,,B,, B,,B,,F,,F,, | F,F,G,,G,, C,C, [F,,F,]2- | [F,,F,]4 z4 |] %17
V:4
 z2 F,,6- | F,,2 F,,6- | F,,2 F,,6- | F,,2 G,,6- | G,,2 F,,6- | F,,2 A,,,6- | A,,,2 F,,6- | %7
 F,,2 z2 z4 | x8 | x8 | x8 | x8 | x8 | x8 | x8 | x8 | x8 |] %17
V:5
 x5[K:treble] x3 | x2[K:bass] x6 | F,2 z2 z4 | x8 | x13/2[K:treble] x3/2 | x5[K:bass] x3 | x8 | %7
 x8 | x8 | x8 | x[K:bass] x7 | x5[K:treble] x3 | x8 | x6[K:bass] x2 | x8 | x8 | x8 |] %17

